icon-svg/homey.svg

<svg xmlns="http://www.w3.org/2000/svg" fill="#44739e" viewBox="0 0 24 24"><path d="M18.928 7.954c.064.09.126.182.185.275a6.6 6.6 0 0 0-.423-.676l.015.024.017.028.044.072.01.017.049.084v.006c.017.03.035.061.051.092l.011.02c.018.027.035.055.052.082zm.548 1.087a6.56 6.56 0 0 1 .3.958c.011.052.016.106.027.158A6.665 6.665 0 0 1 7.66 15.042a4.7 4.7 0 0 1-.227-.348 6.5 6.5 0 0 0 .412.667 6.668 6.668 0 1 0 11.268-7.132 6.59 6.59 0 0 1 .652 1.74 6.56 6.56 0 0 0-.289-.928M15.423 17.8a6.67 6.67 0 0 0 4.515-6.313 6.7 6.7 0 0 0-.04-.714 6.5 6.5 0 0 1 .041.714 6.671 6.671 0 0 1-4.516 6.313m4.414-7.418c.02.119.046.237.059.357-.013-.124-.04-.239-.059-.36zM7.608 14.96l.052.082c.08.112.165.22.254.324l.024.027.016.02.055.061c.033.037.067.073.1.109l.06.061a6.6 6.6 0 0 1-.569-.694Zm9.798-3.475v.075c.01.117.016.235.019.354v-.15c0-.22-.011-.438-.032-.652 0 .063.006.126.008.19s.005.121.005.183m-13.316.279v.13c0-.125.011-.248.022-.371l-.023.07c.002.057.001.114.001.171m12.62 2.681c.019-.036.037-.072.055-.108-.021.045-.046.089-.068.134l.012-.023zm.056-.109-.001.001zm-6.736 2.327a5.07 5.07 0 1 0-1.609-1.084 5.03 5.03 0 0 0 1.609 1.084M7.073 12A4.927 4.927 0 1 1 12 16.927 4.927 4.927 0 0 1 7.073 12m13.68-3.7A9.527 9.527 0 1 0 21.5 12a9.45 9.45 0 0 0-.747-3.7M12 21.366A9.366 9.366 0 1 1 21.366 12 9.366 9.366 0 0 1 12 21.366m.726-14.627c.169.023.336.055.5.094s.326.086.485.14q.12.041.237.087a5.3 5.3 0 0 1 .576.271c.063.034.126.07.187.106.091.054.181.111.269.171l.141.1c.086.062.169.127.251.2.038.031.076.062.113.095q.1665.15.321.3l.006.006c.088.091.173.184.254.281.027.032.054.065.08.1a5.326 5.326 0 0 1 .915 4.916l.013-.039a6.63 6.63 0 0 0 .331-2 6.674 6.674 0 0 0-4.69-5.84l-.076-.027-.074-.021h-.006l-.072-.019h-.009l-.069-.018h-.012l-.067-.017h-.014l-.068-.025h-.017l-.062-.014h-.02l-.06-.013h-.022l-.059-.012h-.023l-.057-.011h-.026l-.056-.009-.028-.005-.053-.036h-.03l-.052-.007h-.032l-.051-.012h-.034l-.048-.006H9.999l-.048.006h-.034l-.05.006h-.033l-.051.013h-.031l-.052.012h-.029l-.054.01H9.59l-.056.01h-.025l-.057.011h-.023l-.059.012h-.021l-.061.014h-.019l-.062.015h-.016l-.065.016h-.014l-.067.017h-.011l-.069.019h-.008l-.072.064-.075.022a6.673 6.673 0 0 0-4.688 5.8 7.26 7.26 0 0 1 .9-1.824l.056-.081.01-.015.048-.066.021-.029.037-.051.032-.043.027-.035.044-.058.003-.02.057-.072a7.21 7.21 0 0 1 3.86-2.474c.082-.021.164-.042.247-.06a7.214 7.214 0 0 1 3.255.043zM12 2.768A9.232 9.232 0 1 0 21.232 12 9.243 9.243 0 0 0 12 2.768m.437.205c-.288-.014-.577-.016-.865 0 .29-.016.579-.013.865 0m5.781 15.584c.151-.144.293-.3.434-.449-.141.153-.282.305-.434.449m.575-.6q.274-.312.518-.648-.243.338-.518.65zm1.19-1.722a7.233 7.233 0 0 1-4.248 3.008c-.083.02-.164.042-.248.06a7.6 7.6 0 0 1-.9.136 7.216 7.216 0 0 1-3.981-.79l-.016-.009-.064-.034-.022-.012-.011-.006-.054-.03-.017-.01h-.011l-.015-.009-.048-.027-.014-.008-.015-.009-.021-.012-.041-.024-.013-.008-.014-.009-.034-.02-.03-.018-.011-.007h-.007l-.068-.043-.077-.049-.027-.018-.049-.033-.01-.006-.017-.024-.029-.02-.011-.004-.014-.01-.033-.023-.013-.016-.033-.024-.043-.027-.019-.014-.025-.018-.041-.03L9.591 18l-.043-.033-.042-.032-.046-.035-.038-.03-.057-.046-.027-.024-.082-.069-.026-.021-.056-.049-.031-.028-.033-.033-.013-.012-.032-.03-.022-.019-.012-.011-.015-.015-.032-.03-.016-.015-.013-.013-.019-.018-.031-.03-.017-.007-.012-.012-.025-.025-.029-.029-.01-.009-.04-.04-.023-.025a3 3 0 0 1-.076-.079q-.063-.066-.123-.135-.144-.162-.279-.332c-.075-.1-.148-.193-.219-.292a7.23 7.23 0 0 1-1.172-2.664 7.36 7.36 0 0 1-.152-1.134v-.007c0-.051-.011-.1-.015-.151v-.769l.006-.1v-.099l.007-.065v-.031l.009-.074v-.019l.012-.084A5.32 5.32 0 0 1 7.8 8.758l.071-.09.075-.091.012-.014.033-.038.023-.027.015-.017a5.3 5.3 0 0 1 2.848-1.671 5.5 5.5 0 0 1 .7-.1 6.7 6.7 0 0 0-1.367.189c.111-.032.223-.061.337-.086a5.35 5.35 0 0 1 .7-.1c.117-.01.234-.014.351-.016h-.07a6.669 6.669 0 1 0 0 13.337h.334a6.6 6.6 0 0 0 1.787-.244 7.2 7.2 0 0 0 2.063-.146c.084-.018.165-.04.247-.06a7.24 7.24 0 0 0 2.229-.989 9.032 9.032 0 0 1-13.526-1.316 9.041 9.041 0 0 1 5.426-14.115c.131-.029.262-.053.393-.075l.111-.018h.035l.083-.012.048-.007.115-.015h.602l.057.005h.035l.058.006h.034l.059.006h.033l.059.008h.032l.06.009h.032l.06.01h.031l.06.01h.03l.062.011.029.006.062.012h.027l.063.013.027.006.064.014.026.006.064.015.025.006.064.016.024.006.066.017.023.007.059.074.022.006.066.019.022.006.067.021.02.006.068.021.019.007.068.022.019.006.068.024.018.006.069.025.017.006.069.026.016.006.07.027.015.006.07.028.015.007.07.029.014.006.07.03.014.006.07.031.013.006.07.033.013.005.07.034.012.006.071.035h.011l.07.036.011.006.071.037h.009l.071.039h.01l.071.04h.008l.071.041h.008l.071.042h.008l.07.043h.008l.07.044h.007l.07.045h.007l.07.046h.006l.07.048h.006l.069.048.07.05h.005l.069.051.069.052.068.053h.005l.068.055.068.056.067.057.067.058.068.059.068.061q.17.154.329.32l.063.067.074.08.006.007c.025.026.049.054.073.081l.07.081q.234.276.437.568l.009.013.036.052.016.025.03.044.007.01.023.036.016.024.013.021v.006l.027.043.051.101.007.011.022.036.025.041.018.029.027.047.012.02.029.049.005.009.025.045a7.195 7.195 0 0 1-.581 7.946c.038-.068.072-.138.107-.208l-.042.078-.007.012-.051.091-.012.021-.048.081-.008.013c-.051.066-.1.13-.158.194a7.24 7.24 0 0 1-1.023.988l-.009.007-.064.051-.03.023-.042.031-.045.034-.009.006-.068.05-.036.026-.044.033-.046.031-.04.028-.045.029-.061.04-.056.035-.045.027-.044.027-.047.027-.041.023-.078.044-.042.023-.049.025-.042.022-.057.028-.053.027-.061.029-.041.018-.053.024-.039.017q-.042.019-.084.036l-.034.014-.059.024-.039.015-.06.022-.033.013-.087.03-.035.012-.061.02-.036.012-.073.022-.029.009-.082.023-.035.009-.064.017-.033.009-.091.021-.023.006-.074.016-.028.007-.072.014h-.025l-.094.017h-.025l-.074.011h-.029l-.09.012h-.006l-.1.011h-.025l-.079.008h-.021l-.1.007-.1.005h-.456A5.38 5.38 0 0 1 10.559 17a5.4 5.4 0 0 1-.477-.148c-.1-.036-.2-.073-.29-.113a4 4 0 0 1-.176-.079 6 6 0 0 1-.276-.14 5.2 5.2 0 0 1-.524-.329 5.1 5.1 0 0 1-.646-.548 6.669 6.669 0 0 0 11.068-7.004l-.039-.1v-.006l-.039-.091v-.009l-.039-.088v-.011l-.039-.085-.006-.012c-.013-.028-.026-.056-.04-.083l-.006-.013a3 3 0 0 0-.041-.082l-.007-.013-.041-.081-.008-.014-.043-.051a6.7 6.7 0 0 0-2-2.012 7.262 7.262 0 0 0-4.372-2.9A9.037 9.037 0 0 1 20.741 9.7c.033.128.066.258.094.389a9 9 0 0 1-.851 6.148zM11.891 6.69h-.031c-.089 0-.174.013-.262.017.111-.009.222-.013.332-.015zM7.42 14.674l.013.02c-.014-.024-.03-.045-.043-.069Zm-.048-.074c0 .01.012.019.018.029l-.022-.036Zm3.386-9.5a6.668 6.668 0 0 1 6.642 6.012 6.67 6.67 0 0 0-4.7-6l-.076-.023-.074-.021h-.006l-.072-.019h-.009l-.069-.018h-.012L12.306 5h-.014l-.065-.015h-.017l-.062-.013h-.02l-.06-.013h-.022l-.059-.012h-.023l-.057-.011h-.026l-.056-.009h-.028l-.053-.008-.03-.005-.052-.007h-.032l-.05-.006h-.034l-.046-.042h-.036l-.047-.005h-1.353l-.046.005h-.037l-.048.006h-.034l-.05.006h-.033l-.05.007-.031.005-.056.017H9.65l-.054.01h-.027l-.056.01h-.025l-.057.011h-.023l-.059.012h-.021l-.061.014h-.018L9.186 5H9.17l-.065.016h-.014l-.067.017h-.011l-.069.019h-.008l-.072.021h-.005l-.074.023a6.673 6.673 0 0 0-4.71 6.175v.367l.019-.06v-.1A6.669 6.669 0 0 1 10.758 5.1"/></svg>

<?xml version="1.0" encoding="UTF-8"?>
<svg width="24px" fill="#44739e" height="24px" viewBox="0 0 24 24" version="1.1" xmlns="http://www.w3.org/2000/svg" xmlns:xlink="http://www.w3.org/1999/xlink">
            <path d="m 18.928,7.954 c 0.064,0.09 0.126,0.182 0.185,0.275 A 6.584,6.584 0 0 0 18.69,7.553 l 0.015,0.024 0.017,0.028 0.044,0.072 0.01,0.017 0.049,0.084 v 0.006 c 0.017,0.03 0.035,0.061 0.051,0.092 l 0.011,0.02 c 0.018,0.027 0.035,0.055 0.052,0.082 z m 0.548,1.087 a 6.564,6.564 0 0 1 0.3,0.958 c 0.011,0.052 0.016,0.106 0.027,0.158 A 6.665,6.665 0 0 1 7.66,15.042 C 7.579,14.93 7.504,14.813 7.433,14.694 a 6.494,6.494 0 0 0 0.412,0.667 6.668,6.668 0 1 0 11.268,-7.132 6.588,6.588 0 0 1 0.652,1.74 6.558,6.558 0 0 0 -0.289,-0.928 z M 15.423,17.8 a 6.67,6.67 0 0 0 4.515,-6.313 6.743,6.743 0 0 0 -0.04,-0.714 6.544,6.544 0 0 1 0.041,0.714 6.671,6.671 0 0 1 -4.516,6.313 z m 4.414,-7.418 c 0.02,0.119 0.046,0.237 0.059,0.357 -0.013,-0.124 -0.04,-0.239 -0.059,-0.36 z M 7.608,14.96 7.66,15.042 c 0.08,0.112 0.165,0.22 0.254,0.324 l 0.024,0.027 0.016,0.02 0.055,0.061 c 0.033,0.037 0.067,0.073 0.1,0.109 l 0.06,0.061 A 6.643,6.643 0 0 1 7.6,14.95 Z m 9.798,-3.475 v 0.075 c 0.01,0.117 0.016,0.235 0.019,0.354 q 0,-0.075 0,-0.15 c 0,-0.22 -0.011,-0.438 -0.032,-0.652 0,0.063 0.006,0.126 0.008,0.19 0.002,0.064 0.005,0.121 0.005,0.183 z M 4.09,11.764 c 0,0.044 0,0.086 0,0.13 0,-0.125 0.011,-0.248 0.022,-0.371 l -0.023,0.07 c 0.002,0.057 10e-4,0.114 10e-4,0.171 z m 12.62,2.681 c 0.019,-0.036 0.037,-0.072 0.055,-0.108 -0.021,0.045 -0.046,0.089 -0.068,0.134 l 0.012,-0.023 z m 0.056,-0.109 -10e-4,10e-4 z M 10.03,16.663 A 5.07,5.07 0 1 0 8.421,15.579 5.029,5.029 0 0 0 10.03,16.663 Z M 7.073,12 A 4.927,4.927 0 1 1 12,16.927 4.927,4.927 0 0 1 7.073,12 Z M 20.753,8.3 A 9.527,9.527 0 1 0 21.5,12 9.447,9.447 0 0 0 20.753,8.3 Z M 12,21.366 A 9.366,9.366 0 1 1 21.366,12 9.366,9.366 0 0 1 12,21.366 Z M 12.726,6.739 c 0.169,0.023 0.336,0.055 0.5,0.094 0.164,0.039 0.326,0.086 0.485,0.14 q 0.12,0.041 0.237,0.087 a 5.3,5.3 0 0 1 0.576,0.271 c 0.063,0.034 0.126,0.07 0.187,0.106 0.091,0.054 0.181,0.111 0.269,0.171 l 0.141,0.1 c 0.086,0.062 0.169,0.127 0.251,0.2 0.038,0.031 0.076,0.062 0.113,0.095 0.111,0.1 0.218,0.2 0.321,0.3 l 0.006,0.006 C 15.9,8.4 15.985,8.493 16.066,8.59 v 0 c 0.027,0.032 0.054,0.065 0.08,0.1 a 5.326,5.326 0 0 1 0.915,4.916 l 0.013,-0.039 a 6.631,6.631 0 0 0 0.331,-2 6.674,6.674 0 0 0 -4.69,-5.84 v 0 L 12.639,5.7 v 0 L 12.565,5.679 H 12.559 L 12.487,5.66 H 12.478 L 12.409,5.642 H 12.397 L 12.33,5.625 H 12.316 L 12.248,5.6 H 12.231 L 12.169,5.586 h -0.02 L 12.089,5.573 H 12.067 L 12.008,5.561 H 11.985 L 11.928,5.55 H 11.902 L 11.846,5.541 11.818,5.536 11.765,5.5 h -0.03 L 11.683,5.493 H 11.651 L 11.6,5.481 H 11.566 L 11.518,5.475 H 11.482 11.435 11.397 11.351 11.312 11.267 11.226 11.183 11.14 11.099 11.053 11.014 10.965 10.552 10.502 10.464 10.418 10.377 10.333 10.291 10.249 10.205 10.166 10.12 10.082 10.035 9.999 L 9.951,5.481 H 9.917 L 9.867,5.487 H 9.834 L 9.783,5.5 H 9.752 L 9.7,5.512 H 9.671 L 9.617,5.522 H 9.59 L 9.534,5.532 H 9.509 L 9.452,5.543 H 9.429 L 9.37,5.555 H 9.349 L 9.288,5.569 H 9.269 L 9.207,5.584 H 9.191 L 9.126,5.6 H 9.112 L 9.045,5.617 H 9.034 L 8.965,5.636 H 8.957 L 8.885,5.7 v 0 L 8.81,5.722 v 0 a 6.673,6.673 0 0 0 -4.688,5.8 7.262,7.262 0 0 1 0.9,-1.824 v 0 L 5.078,9.617 5.088,9.602 5.136,9.536 5.157,9.507 5.194,9.456 5.226,9.413 5.253,9.378 5.297,9.32 5.3,9.3 5.357,9.228 v 0 A 7.209,7.209 0 0 1 9.217,6.754 C 9.299,6.733 9.381,6.712 9.464,6.694 a 7.214,7.214 0 0 1 3.255,0.043 z M 11.579,6.707 Z M 12,2.768 A 9.232,9.232 0 1 0 21.232,12 9.243,9.243 0 0 0 12,2.768 Z m 0.437,0.205 c -0.288,-0.014 -0.577,-0.016 -0.865,0 0.29,-0.016 0.579,-0.013 0.865,0 z m 5.781,15.584 c 0.151,-0.144 0.293,-0.3 0.434,-0.449 -0.141,0.153 -0.282,0.305 -0.434,0.449 z m 0.575,-0.6 q 0.274,-0.312 0.518,-0.648 -0.243,0.338 -0.518,0.65 z m 1.19,-1.722 v 0 a 7.233,7.233 0 0 1 -4.248,3.008 c -0.083,0.02 -0.164,0.042 -0.248,0.06 a 7.552,7.552 0 0 1 -0.9,0.136 v 0 a 7.216,7.216 0 0 1 -3.981,-0.79 L 10.59,18.64 10.526,18.606 10.504,18.594 v 0 l -0.011,-0.006 -0.054,-0.03 -0.017,-0.01 h -0.011 l -0.015,-0.009 -0.048,-0.027 -0.014,-0.008 -0.015,-0.009 -0.021,-0.012 -0.041,-0.024 -0.013,-0.008 -0.014,-0.009 -0.034,-0.02 -0.03,-0.018 -0.011,-0.007 H 10.148 L 10.08,18.354 v 0 L 10.003,18.305 9.976,18.287 9.927,18.254 9.917,18.248 9.9,18.224 9.871,18.204 9.86,18.2 9.846,18.19 9.813,18.167 9.8,18.151 v 0 L 9.767,18.127 9.724,18.1 9.705,18.086 v 0 L 9.68,18.068 9.639,18.038 9.591,18 9.548,17.967 9.506,17.935 9.46,17.9 9.422,17.87 9.365,17.824 9.338,17.8 9.256,17.731 9.23,17.71 9.174,17.661 9.143,17.633 9.11,17.6 v 0 L 9.097,17.588 9.065,17.558 9.043,17.539 9.031,17.528 9.016,17.513 8.984,17.483 8.968,17.468 8.955,17.455 8.936,17.437 8.905,17.407 8.888,17.4 8.876,17.388 8.851,17.363 8.822,17.334 8.812,17.325 v 0 L 8.772,17.285 8.749,17.26 C 8.723,17.234 8.698,17.208 8.673,17.181 Q 8.61,17.115 8.55,17.046 8.406,16.884 8.271,16.714 v 0 0 C 8.196,16.614 8.123,16.521 8.052,16.422 A 7.226,7.226 0 0 1 6.88,13.758 7.356,7.356 0 0 1 6.728,12.624 v -0.007 c 0,-0.051 -0.011,-0.1 -0.015,-0.151 v 0 -0.064 -0.02 -0.047 -0.028 -0.038 -0.075 -0.427 -0.055 -0.015 l 0.006,-0.1 v -0.055 -0.044 l 0.007,-0.065 v -0.031 l 0.009,-0.074 v -0.019 l 0.012,-0.084 v 0 A 5.322,5.322 0 0 1 7.8,8.758 v 0 l 0.071,-0.09 v 0 L 7.946,8.577 7.958,8.563 7.991,8.525 8.014,8.498 8.029,8.481 a 5.3,5.3 0 0 1 2.848,-1.671 5.463,5.463 0 0 1 0.7,-0.1 6.682,6.682 0 0 0 -1.367,0.189 c 0.111,-0.032 0.223,-0.061 0.337,-0.086 a 5.35,5.35 0 0 1 0.7,-0.1 c 0.117,-0.01 0.234,-0.014 0.351,-0.016 h -0.07 a 6.669,6.669 0 1 0 0,13.337 c 0.045,0 0.089,0 0.134,0 q 0.1,0 0.2,0 a 6.607,6.607 0 0 0 1.787,-0.244 7.2,7.2 0 0 0 2.063,-0.146 c 0.084,-0.018 0.165,-0.04 0.247,-0.06 A 7.24,7.24 0 0 0 18.188,18.595 9.032,9.032 0 0 1 4.662,17.279 v 0 0 0 A 9.041,9.041 0 0 1 10.088,3.164 C 10.219,3.135 10.35,3.111 10.481,3.089 l 0.111,-0.018 h 0.011 0.024 L 10.71,3.059 10.758,3.052 10.873,3.037 h 0.227 0.059 0.037 0.057 0.036 0.057 0.036 0.057 0.036 l 0.057,0.005 h 0.035 l 0.058,0.006 h 0.034 l 0.059,0.006 h 0.033 l 0.059,0.008 h 0.032 l 0.06,0.009 h 0.032 l 0.06,0.01 h 0.031 l 0.06,0.01 h 0.03 l 0.062,0.011 0.029,0.006 0.062,0.012 h 0.027 l 0.063,0.013 0.027,0.006 0.064,0.014 0.026,0.006 0.064,0.015 0.025,0.006 0.064,0.016 0.024,0.006 0.066,0.017 0.023,0.007 0.059,0.074 0.022,0.006 0.066,0.019 0.022,0.006 0.067,0.021 0.02,0.006 0.068,0.021 0.019,0.007 0.068,0.022 0.019,0.006 0.068,0.024 0.018,0.006 0.069,0.025 0.017,0.006 0.069,0.026 0.016,0.006 0.07,0.027 0.015,0.006 0.07,0.028 0.015,0.007 0.07,0.029 0.014,0.006 0.07,0.03 0.014,0.006 0.07,0.031 0.013,0.006 0.07,0.033 0.013,0.005 0.07,0.034 0.012,0.006 0.071,0.035 h 0.011 l 0.07,0.036 0.011,0.006 0.071,0.037 h 0.009 l 0.071,0.039 h 0.01 l 0.071,0.04 h 0.008 l 0.071,0.041 h 0.008 l 0.071,0.042 h 0.008 l 0.07,0.043 h 0.008 l 0.07,0.044 h 0.007 l 0.07,0.045 h 0.007 l 0.07,0.046 h 0.006 l 0.07,0.048 h 0.006 l 0.069,0.048 v 0 l 0.07,0.05 h 0.005 l 0.069,0.051 v 0 l 0.069,0.052 v 0 l 0.068,0.053 h 0.005 l 0.068,0.055 v 0 l 0.068,0.056 v 0 l 0.067,0.057 v 0 l 0.067,0.058 v 0 l 0.068,0.059 v 0 l 0.068,0.061 v 0 q 0.17,0.154 0.329,0.32 l 0.063,0.067 0.074,0.08 0.006,0.007 v 0 c 0.025,0.026 0.049,0.054 0.073,0.081 v 0 l 0.07,0.081 v 0 q 0.234,0.276 0.437,0.568 l 0.009,0.013 0.036,0.052 0.016,0.025 0.03,0.044 0.007,0.01 0.023,0.036 0.016,0.024 0.013,0.021 V 6.298 L 16.949,6.341 17,6.442 17.007,6.453 v 0 l 0.022,0.036 0.025,0.041 0.018,0.029 0.027,0.047 0.012,0.02 0.029,0.049 0.005,0.009 0.025,0.045 a 7.195,7.195 0 0 1 -0.581,7.946 c 0.038,-0.068 0.072,-0.138 0.107,-0.208 l -0.042,0.078 -0.007,0.012 -0.051,0.091 -0.012,0.021 -0.048,0.081 -0.008,0.013 v 0 0 0 0 c -0.051,0.066 -0.1,0.13 -0.158,0.194 a 7.24,7.24 0 0 1 -1.023,0.988 l -0.009,0.007 -0.064,0.051 -0.03,0.023 -0.042,0.031 -0.045,0.034 -0.009,0.006 -0.068,0.05 -0.036,0.026 -0.044,0.033 -0.046,0.031 -0.04,0.028 -0.045,0.029 -0.061,0.04 -0.056,0.035 -0.045,0.027 -0.044,0.027 -0.047,0.027 -0.041,0.023 -0.078,0.044 -0.042,0.023 -0.049,0.025 -0.042,0.022 -0.057,0.028 -0.053,0.027 -0.061,0.029 -0.041,0.018 -0.053,0.024 -0.039,0.017 q -0.042,0.019 -0.084,0.036 l -0.034,0.014 -0.059,0.024 -0.039,0.015 -0.06,0.022 -0.033,0.013 -0.087,0.03 -0.035,0.012 -0.061,0.02 -0.036,0.012 -0.073,0.022 -0.029,0.009 -0.082,0.023 -0.035,0.009 -0.064,0.017 -0.033,0.009 -0.091,0.021 -0.023,0.006 -0.074,0.016 -0.028,0.007 -0.072,0.014 h -0.025 l -0.094,0.017 h -0.025 l -0.074,0.011 h -0.029 l -0.09,0.012 h -0.006 l -0.1,0.011 H 12.46 L 12.381,17.14 H 12.36 l -0.1,0.007 v 0 l -0.1,0.005 h -0.02 -0.094 -0.006 -0.1 -0.113 -0.1 -0.023 A 5.375,5.375 0 0 1 10.559,17 C 10.397,16.958 10.24,16.909 10.082,16.852 9.982,16.816 9.882,16.779 9.792,16.739 9.733,16.714 9.674,16.688 9.616,16.66 9.523,16.616 9.431,16.569 9.34,16.52 A 5.171,5.171 0 0 1 8.816,16.191 5.114,5.114 0 0 1 8.17,15.643 6.669,6.669 0 0 0 19.238,8.639 v 0 l -0.039,-0.1 V 8.533 L 19.16,8.442 V 8.433 L 19.121,8.345 V 8.334 L 19.082,8.249 19.076,8.237 C 19.063,8.209 19.05,8.181 19.036,8.154 L 19.03,8.141 C 19.017,8.114 19.003,8.086 18.989,8.059 L 18.982,8.046 18.941,7.965 18.933,7.951 18.89,7.9 a 6.7,6.7 0 0 0 -2,-2.012 7.262,7.262 0 0 0 -4.372,-2.9 9.037,9.037 0 0 1 8.223,6.712 c 0.033,0.128 0.066,0.258 0.094,0.389 a 9,9 0 0 1 -0.851,6.148 z M 11.891,6.69 H 11.86 c -0.089,0 -0.174,0.013 -0.262,0.017 0.111,-0.009 0.222,-0.013 0.332,-0.015 z m -4.471,7.984 0.013,0.02 C 7.419,14.67 7.403,14.649 7.39,14.625 Z M 7.372,14.6 c 0,0.01 0.012,0.019 0.018,0.029 L 7.368,14.593 Z m 3.386,-9.5 a 6.668,6.668 0 0 1 6.642,6.012 6.67,6.67 0 0 0 -4.7,-6 v 0 L 12.624,5.089 v 0 L 12.55,5.068 H 12.544 L 12.472,5.049 H 12.463 L 12.394,5.031 H 12.382 L 12.306,5 H 12.292 L 12.227,4.985 H 12.21 L 12.148,4.972 h -0.02 L 12.068,4.959 H 12.046 L 11.987,4.947 H 11.964 L 11.907,4.936 H 11.881 L 11.825,4.927 H 11.797 L 11.744,4.919 11.714,4.914 11.662,4.907 H 11.63 L 11.58,4.901 H 11.546 L 11.5,4.859 H 11.464 L 11.417,4.854 H 11.379 11.333 11.294 11.249 11.208 11.165 11.122 11.081 11.035 10.996 10.947 10.534 10.485 10.446 10.4 10.359 10.316 10.273 10.231 10.187 10.148 10.102 10.064 L 10.018,4.859 H 9.981 L 9.933,4.865 H 9.899 L 9.849,4.871 H 9.816 L 9.766,4.878 9.735,4.883 9.679,4.9 H 9.65 L 9.596,4.91 H 9.569 L 9.513,4.92 H 9.488 L 9.431,4.931 H 9.408 L 9.349,4.943 H 9.328 L 9.267,4.957 H 9.249 L 9.186,5 H 9.17 L 9.105,5.016 H 9.091 L 9.024,5.033 H 9.013 L 8.944,5.052 H 8.936 L 8.864,5.073 H 8.859 L 8.785,5.096 v 0 a 6.673,6.673 0 0 0 -4.71,6.175 c 0,0.067 0,0.134 0,0.2 0,0.066 0,0.112 0,0.167 v 0 l 0.019,-0.06 v -0.1 A 6.669,6.669 0 0 1 10.758,5.1 Z"/>

</svg>
